X: 1382
T: Smash The Windows
M:2/4
L:1/16
N:"collected by J. O'Neill"
B:O'Neill's 1382
Z:"Transcribed by Bob Safranek, rjs@gsp.org"
K:D
D2   | DFED   F2A2    | defd       ecAF    | G2(TGE)   F2(TFD) | E2(EF) GFEF |
       DFED   F2A2    | d2(fd)     ecAd    | f2(fd)    gece    | d2dd   d2   ||
(fg) |a2f2    defg    | f2g2       agfa    | g2e2      cdef    | e2f2   gfeg |
  ((3fgf)ed ((3gag)fe |((3aba)gf ((3gag)fe | ((3fgf)ed gece    | d2dd   d2   |]


